X:1
T:James Gibb editions
T:Petite nymphe folastre - Janequin
T:#
%%score [ 1 2 3 4 ]
L:1/8
Q:1/4=96
M:4/4
K:F
V:1 treble nm="Soprano" snm="S"
V:2 treble nm="Alto" snm="A"
V:3 treble-8 nm="Tenor" snm="T"
V:4 bass nm="Bass" snm="B"
V:1
"^Pierre de Ronsard\n(1524-85)""^Petite nymphe folastre""^Clément Janequin\n(1485-1558)" z4 F2 FG | %1
w: Pe- ti- te|
 FF/F/ B2 A2 d2 | cc/c/ BB A2 G2 | FFBB AA d2 | (c2 B2) A3 G | F2 (A2 GF) (F2- | F2 E2) F2 z2 | %7
w: nym- phe fol- as- tre, Nym-|phet- te que j'i- do- las- tre,|Ma mi- gnon- ne dont les yeulx|Lo- * gent mon|pis et * * mon|* * mieux,|
 z4 FFBB | AA (d2 c2) B2 | A3 G F2 (A2 | GF) (F4 E2) | F4 A3 B | c2 A2 d3 c | =B2 c2 A4 | %14
w: Ma mi- gnon- ne|dont les yeulx * Lo-|gent mon pis et|* * mon *|mieux, Ma doul-|cet- te, ma suc-|cré- e, Ma|
 c2 AA d3 c | =B2 c2 F2 F2 | B3 B G2 B2 | A2 cc c2 c2 | A2 BB B3 B | AA G4 FF | F2 EE F3 F | %21
w: gra- ce, ma ci- the-|ré- e, Tu me|doibs, pour m'ap- pai-|ser, Mil- le fois le|jour, tu me doibs, pour|m'ap- pai- ser, mil- le|fois, tu me doibs, pour|
[Q:1/4=95] E[Q:1/4=94]E[Q:1/4=92] D2[Q:1/4=90] F[Q:1/4=89]F[Q:1/4=88]G[Q:1/4=86]F | %22
w: m'ap- pai- ser, mil- le fois le|
[Q:1/4=85] F2[Q:1/4=83] E2[Q:1/4=82] F8 |] %23
w: jour bai- ser.|
V:2
 F,2 A,B, CA,/A,/ D2 | C2 F2 FF/F/ FF | F2 D2 DDDD | DD F4 F2 | F2 D2 D2 (F2- | F2 E2) (D3 B, | %6
w: Pe- ti- te nym- phe fol- as-|tre, Nym- phet- te que j'i- do-|las- tre, Ma mi- gnon- ne|dont les yeulx Lo-|gent mon pis et|* * mon *|
 C4) C2 DE | FFDD C2 F2 | F2 F2 FF D2 | D2 F2 F2 E2 | D3 B, C4 | C2 F3 E D2 | (CD/E/ F2) F3 E | %13
w: * mieux, Ma mi-|gnon- ne dont les yeulx Lo-|gent mon pis et mon|mieux, lo- gent mon|pis et mon|mieux, Ma doul- cet-|te, * * * ma suc-|
 D2 CC F4 | F2 F2 F3 E | D2 E2 D2 D2 | F3 F E2 F2 | F2 FF FFEE | D2 DD DDGG | (F2 E2 D4) | %20
w: cré- e, Ma gra-|ce, ma ci- the-|ré- e, Tu me|doibs, pour m'ap- pai-|ser, Mil- le fois le jour bai-|ser, tu me doibs, pour m'ap- pai-|ser, * *|
 CCCC A,4 | A,A,B,B, D2 z D | C2 C2 C8 |] %23
w: mil- le fois le jour,|mil- le fois le jour, le|jour bai- ser.|
V:3
 F2 FG AF/F/ B2 | A2 d2 cc/c/ BB | A2 G2 FFBB | AA (d2 c2) B2 | A2 G2 (F3 G | AB c2 B2) (AG/F/ | %6
w: Pe- ti- te nym- phe fol- as-|tre, Nym- phet- te que j'i- do-|las- tre, Ma mi- gnon- ne|dont les yeulx * Lo-|gent mon pis *|* * * * et * *|
 G2) G2 F2 z2 | FFBB AA d2 | (c2 B2) A2 G2 | (F3 G AB c2) | (B2 AG/F/ G2) G2 | F4 F3 G | %12
w: * mon mieux,|Ma mi- gnon- ne dont les yeulx|Lo\- * gent mon|pis * * * *|et * * * * mon|mieux, Ma doul-|
 A2 F2 (FG/A/ B)G | G2 GG d4 | A2 z2 A2 BG | G2 G2 B2 B2 | d3 d c2 d2 | c2 AA AAGG | F2 z2 z4 | %19
w: cet- te, ma * * * suc-|cré- e, Ma gra-|ce, ma ci- the-|ré- e, Tu me|doibs, pour m'ap- pai-|ser, Mil- le fois le jour bai-|ser,|
 z2 cc B3 B | A2 G2 F4 | z2 FF B3 B | A2 G2 F8 |] %23
w: tu me doibs, pour|m'ap- pai- ser,|mil- le fois le|jour bai- ser.|
V:4
 F,2 D,B,, F,F,/F,/ B,,2 | F,2 B,,2 F,F,/F,/ B,,2 | F,,2 G,,2 D,D,G,,G,, | D,D, B,,2 F,2 B,,2 | %4
w: Pe- ti- te nym- phe fol- as-|tre, Nym- phet- te que j'i-|do- las- tre, Ma mi- gnon-|ne dont les yeulx Lo-|
 F,2 G,2 D,4- | D,2 (A,,2 B,,2 D,2) | C,4 F,,2 B,,C, | D,D,B,,B,, F,2 B,,2 | (F,2 B,,2 F,2) G,2 | %9
w: gent mon pis|* et * *|mon mieux, Ma mi-|gnon- ne dont les yeulx Lo-|gent * * mon|
 D,6 A,,2 | (B,,2 D,2 C,4) | F,,4 z4 | F,3 E, D,C,B,,C, | G,,2 C,2 z4 | F,2 F,2 D,D,B,,C, | %15
w: pis et|mon * *|mieux,|Ma doul- cet- te, ma suc-|cré- e,|Ma gra- ce, ma ci- the-|
 G,,2 C,2 B,,2 B,,2 | B,,3 B,, C,2 B,,2 | F,2 F,F, F,F, C,2 | D,2 G,,4 z2 | z2 C,C, G,,G,,B,,B,, | %20
w: ré- e, Tu me|doibs, pour m'ap- pai-|ser, Mil- le fois le jour|bai- ser,|mil- le fois le jour bai-|
 F,,2 C,C, D,3 D, | C,C, B,,2 B,,B,,E,B,, | F,2 C,2 F,,8 |] %23
w: ser, tu me doibs, pour|m'ap- pai- ser, mil- le fois le|jour bai- ser.|

